symbols/web/sd/materialsymbolsoutlined/sd_wght500fill1_48px.svg

<svg xmlns="http://www.w3.org/2000/svg" height="48" width="48"><path d="M13.7 30.15h6.35q.7 0 1.35-.475.65-.475.65-1.175v-3.65q0-.7-.65-1.175-.65-.475-1.35-.475h-5.5v-2.85h5v.85h2.5v-1.65q0-.7-.65-1.2t-1.35-.5H13.7q-.7 0-1.175.5-.475.5-.475 1.2v3.65q0 .7.475 1.175.475.475 1.175.475h5.85v2.8h-5v-.8h-2.5v1.65q0 .7.475 1.175.475.475 1.175.475Zm12.25 0h7.5q1 0 1.75-.75t.75-1.75v-7.3q0-1-.75-1.75t-1.75-.75h-7.5Zm2.5-2.5h5v-7.3h-5ZM7.1 40.3q-1.35 0-2.375-1.025T3.7 36.9V11.1q0-1.4 1.025-2.4t2.375-1h33.8q1.4 0 2.4 1t1 2.4v25.8q0 1.35-1 2.375T40.9 40.3Z"/></svg>

<svg xmlns="http://www.w3.org/2000/svg" height="48" width="48"><path d="M13.7 30.15H20.05Q20.75 30.15 21.4 29.675Q22.05 29.2 22.05 28.5V24.85Q22.05 24.15 21.4 23.675Q20.75 23.2 20.05 23.2H14.55V20.35H19.55V21.2H22.05V19.55Q22.05 18.85 21.4 18.35Q20.75 17.85 20.05 17.85H13.7Q13 17.85 12.525 18.35Q12.05 18.85 12.05 19.55V23.2Q12.05 23.9 12.525 24.375Q13 24.85 13.7 24.85H19.55V27.65H14.55V26.85H12.05V28.5Q12.05 29.2 12.525 29.675Q13 30.15 13.7 30.15ZM25.95 30.15H33.45Q34.45 30.15 35.2 29.4Q35.95 28.65 35.95 27.65V20.35Q35.95 19.35 35.2 18.6Q34.45 17.85 33.45 17.85H25.95ZM28.45 27.65H33.45Q33.45 27.65 33.45 27.65Q33.45 27.65 33.45 27.65V20.35Q33.45 20.35 33.45 20.35Q33.45 20.35 33.45 20.35H28.45ZM7.1 40.3Q5.75 40.3 4.725 39.275Q3.7 38.25 3.7 36.9V11.1Q3.7 9.7 4.725 8.7Q5.75 7.7 7.1 7.7H40.9Q42.3 7.7 43.3 8.7Q44.3 9.7 44.3 11.1V36.9Q44.3 38.25 43.3 39.275Q42.3 40.3 40.9 40.3Z"/></svg>
